apps/mobile/assets/icons/phosphor/image-square.svg

<svg
  height="32"
  viewBox="0 0 256 256"
  width="32"
  xmlns="http://www.w3.org/2000/svg"
>
  <path
    d="m208 32h-160a16 16 0 0 0 -16 16v160a16 16 0 0 0 16 16h160a16 16 0 0 0 16-16v-160a16 16 0 0 0 -16-16zm-160 16h160v77.38l-24.69-24.7a16 16 0 0 0 -22.62 0l-107.32 107.32h-5.37zm160 160h-132l96-96 36 36zm-112-88a24 24 0 1 0 -24-24 24 24 0 0 0 24 24zm0-32a8 8 0 1 1 -8 8 8 8 0 0 1 8-8z"
  />
</svg>

<svg xmlns="http://www.w3.org/2000/svg" width="32" height="32" fill="#000000" viewBox="0 0 256 256"><path d="M208,32H48A16,16,0,0,0,32,48V208a16,16,0,0,0,16,16H208a16,16,0,0,0,16-16V48A16,16,0,0,0,208,32ZM48,48H208v77.38l-24.69-24.7a16,16,0,0,0-22.62,0L53.37,208H48ZM208,208H76l96-96,36,36v60ZM96,120A24,24,0,1,0,72,96,24,24,0,0,0,96,120Zm0-32a8,8,0,1,1-8,8A8,8,0,0,1,96,88Z"></path></svg>
